X: 2
T: Eroticon VI
Z: Damien Rogeau
S: https://thesession.org/tunes/10845#setting30722
R: reel
M: 4/4
L: 1/8
K: Ador
E ~A3 AGED | E ~A3 AGED | E~A3 B ~A3 | c ~A3 dAe2 |
E ~A3 AGED | E ~A3 AGED | EGFA G3D | e3g edBG|
E ~A3 AGED | E ~A3 AGED | E~A3 B ~A3 | c ~A3 dA(e2 |
~e3)d cA d2 - | d3A BAGA | B3G c3A | d3c dege |
|: ~a3g edcA | ~d3c dege | ~a3g edcA | dege a4 |
~a3g edcA | ~d3c dege | a=bag edce | [1 dcAG Acde :| [2 dcAG AGED ||
